images/icons/scalle-big.svg

<svg width="18" height="18" viewBox="0 0 18 18" fill="none" xmlns="http://www.w3.org/2000/svg">
<path d="M12.85 0.850008L14.3 2.30001L12.12 4.46C11.73 4.85 11.73 5.49 12.12 5.88C12.51 6.27 13.15 6.27 13.54 5.88L15.7 3.7L17.15 5.15C17.2205 5.21911 17.3099 5.2658 17.4068 5.28419C17.5038 5.30258 17.6041 5.29185 17.695 5.25335C17.7859 5.21485 17.8634 5.15031 17.9176 5.06785C17.9719 4.9854 18.0006 4.88872 18 4.79V0.500008C18 0.220008 17.78 8.63e-06 17.5 8.63e-06H13.21C13.1113 -0.000571234 13.0146 0.0280823 12.9321 0.0823583C12.8497 0.136634 12.7851 0.214104 12.7467 0.305003C12.7082 0.395902 12.6974 0.496164 12.7158 0.593151C12.7342 0.690139 12.7809 0.779512 12.85 0.850008ZM0.850008 5.15L2.30001 3.7L4.46 5.88C4.85 6.27 5.49 6.27 5.88 5.88C6.27 5.49 6.27 4.85 5.88 4.46L3.7 2.30001L5.15 0.850008C5.21911 0.779512 5.2658 0.690139 5.28419 0.593151C5.30258 0.496164 5.29185 0.395902 5.25335 0.305003C5.21485 0.214104 5.15031 0.136634 5.06785 0.0823583C4.9854 0.0280823 4.88872 -0.000571234 4.79 8.63e-06H0.500008C0.220008 8.63e-06 8.63e-06 0.220008 8.63e-06 0.500008V4.79C8.63e-06 5.24 0.540008 5.46 0.850008 5.15ZM5.15 17.15L3.7 15.7L5.88 13.54C6.27 13.15 6.27 12.51 5.88 12.12C5.49 11.73 4.85 11.73 4.46 12.12L2.30001 14.3L0.850008 12.85C0.779512 12.7809 0.690139 12.7342 0.593151 12.7158C0.496164 12.6974 0.395902 12.7082 0.305003 12.7467C0.214104 12.7851 0.136634 12.8497 0.0823583 12.9321C0.0280823 13.0146 -0.000571234 13.1113 8.63e-06 13.21V17.5C8.63e-06 17.78 0.220008 18 0.500008 18H4.79C4.88872 18.0006 4.9854 17.9719 5.06785 17.9176C5.15031 17.8634 5.21485 17.7859 5.25335 17.695C5.29185 17.6041 5.30258 17.5038 5.28419 17.4068C5.2658 17.3099 5.21911 17.2205 5.15 17.15ZM17.15 12.85L15.7 14.3L13.54 12.12C13.15 11.73 12.51 11.73 12.12 12.12C11.73 12.51 11.73 13.15 12.12 13.54L14.3 15.7L12.85 17.15C12.7809 17.2205 12.7342 17.3099 12.7158 17.4068C12.6974 17.5038 12.7082 17.6041 12.7467 17.695C12.7851 17.7859 12.8497 17.8634 12.9321 17.9176C13.0146 17.9719 13.1113 18.0006 13.21 18H17.5C17.78 18 18 17.78 18 17.5V13.21C18.0006 13.1113 17.9719 13.0146 17.9176 12.9321C17.8634 12.8497 17.7859 12.7851 17.695 12.7467C17.6041 12.7082 17.5038 12.6974 17.4068 12.7158C17.3099 12.7342 17.2205 12.7809 17.15 12.85Z" fill="#FDFBF8"/>
</svg>

<svg width="18" height="18" fill="none" xmlns="http://www.w3.org/2000/svg"><path d="M12.85.85 14.3 2.3l-2.18 2.16c-.39.39-.39 1.03 0 1.42.39.39 1.03.39 1.42 0L15.7 3.7l1.45 1.45a.5.5 0 0 0 .85-.36V.5c0-.28-.22-.5-.5-.5h-4.29a.5.5 0 0 0-.36.85Zm-12 4.3L2.3 3.7l2.16 2.18c.39.39 1.03.39 1.42 0 .39-.39.39-1.03 0-1.42L3.7 2.3 5.15.85A.5.5 0 0 0 4.79 0H.5C.22 0 0 .22 0 .5v4.29c0 .45.54.67.85.36Zm4.3 12L3.7 15.7l2.18-2.16c.39-.39.39-1.03 0-1.42-.39-.39-1.03-.39-1.42 0L2.3 14.3.85 12.85a.5.5 0 0 0-.85.36v4.29c0 .28.22.5.5.5h4.29a.5.5 0 0 0 .36-.85Zm12-4.3L15.7 14.3l-2.16-2.18c-.39-.39-1.03-.39-1.42 0-.39.39-.39 1.03 0 1.42l2.18 2.16-1.45 1.45a.5.5 0 0 0 .36.85h4.29c.28 0 .5-.22.5-.5v-4.29a.5.5 0 0 0-.85-.36Z" fill="#FDFBF8"/></svg>
